N10 G90 G21
G00 X-10 Y0
(--------------------------------------------------------------)
(Diffuser Auto Generated G Code - Bartek Magdon)
(Z axis Unused)
(X0,Y0,Z0= Left, Bottom, NONE)
(MATERIAL TYPE= STYRO FOAM)
(--------------------------------------------------------------)
(Plik Macierzy: qrd23x2.csv)
(Plik wyjsciowy: 3x2_QRD23_150mm.nc)
(Wersja Programu: gcode_gen4.py)
(Data Wygenerowania: Fri Mar  4 09:47:20 2016)
(--------------------------------------------------------------)
(Szerokosc Dyfuzora calkowita:  999.84mm)
(Wysokosc Materiału calkowita: 450.0)
(Wysokosc Pojedynczego dyfuzora: 150.0)
(Dlugosc Materialu: 1000.0)
(--------------------------------------------------------------)
(Szerokosc Slupka jednostkowa: 20.83mm)
(Wysokosc Slupka jednostkowa: 7.222mm)
(Wysokosc Slupka maksymalna: 129.996mm)
(Predkosc podawania materialu: 100.0mm/min)
(Zadana odleglosc bezpieczna: 10.0mm)
(Wysokosc Podstawy - dna: 10.0mm)
(--------------------------------------------------------------)
(Ilosc elementow w poziomie - plyt styropianowych: 3szt.)

(--------------------------------------------------------------)
(                        PROGRAM START                         )
(--------------------------------------------------------------)

G00 X-10.0
G00 Y10.0
G00 X 0
G01 F100.0
G01 X0.0
G01 Y10.0
G01 X20.83
G01 Y17.222
G01 X41.66
G01 Y38.888
G01 X62.49
G01 Y74.998
G01 X83.32
G01 Y125.552
G01 X104.15
G01 Y24.444
G01 X124.98
G01 Y103.886
G01 X145.81
G01 Y31.666
G01 X166.64
G01 Y139.996
G01 X187.47
G01 Y96.664
G01 X208.3
G01 Y67.776
G01 X229.13
G01 Y53.332
G01 X249.96
G01 Y53.332
G01 X270.79
G01 Y67.776
G01 X291.62
G01 Y96.664
G01 X312.45
G01 Y139.996
G01 X333.28
G01 Y31.666
G01 X354.11
G01 Y103.886
G01 X374.94
G01 Y24.444
G01 X395.77
G01 Y125.552
G01 X416.6
G01 Y74.998
G01 X437.43
G01 Y38.888
G01 X458.26
G01 Y17.222
G01 X479.09
G01 Y10.0
G01 X499.92
G01 Y10.0
G01 X520.75
G01 Y17.222
G01 X541.58
G01 Y38.888
G01 X562.41
G01 Y74.998
G01 X583.24
G01 Y125.552
G01 X604.07
G01 Y24.444
G01 X624.9
G01 Y103.886
G01 X645.73
G01 Y31.666
G01 X666.56
G01 Y139.996
G01 X687.39
G01 Y96.664
G01 X708.22
G01 Y67.776
G01 X729.05
G01 Y53.332
G01 X749.88
G01 Y53.332
G01 X770.71
G01 Y67.776
G01 X791.54
G01 Y96.664
G01 X812.37
G01 Y139.996
G01 X833.2
G01 Y31.666
G01 X854.03
G01 Y103.886
G01 X874.86
G01 Y24.444
G01 X895.69
G01 Y125.552
G01 X916.52
G01 Y74.998
G01 X937.35
G01 Y38.888
G01 X958.18
G01 Y17.222
G01 X979.01
G01 Y10.0
G01 X1020.0
G00 Y460.0
G00 X-10.0
(Koniec Plaszczyzny nr:1)
(Koniec warstwy: 1)
G00 X-10.0
G00 Y160.0
G00 X 0
G01 F100.0
G01 X0.0
G01 Y160.0
G01 X20.83
G01 Y167.222
G01 X41.66
G01 Y188.888
G01 X62.49
G01 Y224.998
G01 X83.32
G01 Y275.552
G01 X104.15
G01 Y174.444
G01 X124.98
G01 Y253.886
G01 X145.81
G01 Y181.666
G01 X166.64
G01 Y289.996
G01 X187.47
G01 Y246.664
G01 X208.3
G01 Y217.776
G01 X229.13
G01 Y203.332
G01 X249.96
G01 Y203.332
G01 X270.79
G01 Y217.776
G01 X291.62
G01 Y246.664
G01 X312.45
G01 Y289.996
G01 X333.28
G01 Y181.666
G01 X354.11
G01 Y253.886
G01 X374.94
G01 Y174.444
G01 X395.77
G01 Y275.552
G01 X416.6
G01 Y224.998
G01 X437.43
G01 Y188.888
G01 X458.26
G01 Y167.222
G01 X479.09
G01 Y160.0
G01 X499.92
G01 Y160.0
G01 X520.75
G01 Y167.222
G01 X541.58
G01 Y188.888
G01 X562.41
G01 Y224.998
G01 X583.24
G01 Y275.552
G01 X604.07
G01 Y174.444
G01 X624.9
G01 Y253.886
G01 X645.73
G01 Y181.666
G01 X666.56
G01 Y289.996
G01 X687.39
G01 Y246.664
G01 X708.22
G01 Y217.776
G01 X729.05
G01 Y203.332
G01 X749.88
G01 Y203.332
G01 X770.71
G01 Y217.776
G01 X791.54
G01 Y246.664
G01 X812.37
G01 Y289.996
G01 X833.2
G01 Y181.666
G01 X854.03
G01 Y253.886
G01 X874.86
G01 Y174.444
G01 X895.69
G01 Y275.552
G01 X916.52
G01 Y224.998
G01 X937.35
G01 Y188.888
G01 X958.18
G01 Y167.222
G01 X979.01
G01 Y160.0
G01 X1020.0
G00 Y460.0
G00 X-10.0
(Koniec Plaszczyzny nr:1)
(Koniec warstwy: 2)
G00 X-10.0
G00 Y310.0
G00 X 0
G01 F100.0
G01 X0.0
G01 Y310.0
G01 X20.83
G01 Y317.222
G01 X41.66
G01 Y338.888
G01 X62.49
G01 Y374.998
G01 X83.32
G01 Y425.552
G01 X104.15
G01 Y324.444
G01 X124.98
G01 Y403.886
G01 X145.81
G01 Y331.666
G01 X166.64
G01 Y439.996
G01 X187.47
G01 Y396.664
G01 X208.3
G01 Y367.776
G01 X229.13
G01 Y353.332
G01 X249.96
G01 Y353.332
G01 X270.79
G01 Y367.776
G01 X291.62
G01 Y396.664
G01 X312.45
G01 Y439.996
G01 X333.28
G01 Y331.666
G01 X354.11
G01 Y403.886
G01 X374.94
G01 Y324.444
G01 X395.77
G01 Y425.552
G01 X416.6
G01 Y374.998
G01 X437.43
G01 Y338.888
G01 X458.26
G01 Y317.222
G01 X479.09
G01 Y310.0
G01 X499.92
G01 Y310.0
G01 X520.75
G01 Y317.222
G01 X541.58
G01 Y338.888
G01 X562.41
G01 Y374.998
G01 X583.24
G01 Y425.552
G01 X604.07
G01 Y324.444
G01 X624.9
G01 Y403.886
G01 X645.73
G01 Y331.666
G01 X666.56
G01 Y439.996
G01 X687.39
G01 Y396.664
G01 X708.22
G01 Y367.776
G01 X729.05
G01 Y353.332
G01 X749.88
G01 Y353.332
G01 X770.71
G01 Y367.776
G01 X791.54
G01 Y396.664
G01 X812.37
G01 Y439.996
G01 X833.2
G01 Y331.666
G01 X854.03
G01 Y403.886
G01 X874.86
G01 Y324.444
G01 X895.69
G01 Y425.552
G01 X916.52
G01 Y374.998
G01 X937.35
G01 Y338.888
G01 X958.18
G01 Y317.222
G01 X979.01
G01 Y310.0
G01 X1020.0
G00 Y460.0
G00 X-10.0
(Koniec Plaszczyzny nr:1)
(Koniec warstwy: 3)
G00 X-10
G00 Y0
M02
(--------------------------------------------------------------)
(                        PROGRAM STOP                          )
(--------------------------------------------------------------)
(END OF FILE)
%
