N10 G90 G21
G00 X-10 Y0
(--------------------------------------------------------------)
(Diffuser Auto Generated G Code - Bartek Magdon)
(Z axis Unused)
(X0,Y0,Z0= Left, Bottom, NONE)
(MATERIAL TYPE= STYRO FOAM)
(--------------------------------------------------------------)
(Plik Macierzy: qrd_51.csv)
(Plik wyjsciowy: 3x_QRD51_1000x200mm_Wzor_29luty2016.nc)
(Wersja Programu: gcode_gen4.py)
(Data Wygenerowania: Mon Feb 29 19:46:08 2016)
(--------------------------------------------------------------)
(Szerokosc Dyfuzora calkowita:  999.96mm)
(Wysokosc Materiału calkowita: 600.0)
(Wysokosc Pojedynczego dyfuzora: 200.0)
(Dlugosc Materialu: 1000.0)
(--------------------------------------------------------------)
(Szerokosc Slupka jednostkowa: 19.23mm)
(Wysokosc Slupka jednostkowa: 3.673mm)
(Wysokosc Slupka maksymalna: 179.977mm)
(Predkosc podawania materialu: 100.0mm/min)
(Zadana odleglosc bezpieczna: 10.0mm)
(Wysokosc Podstawy - dna: 10.0mm)
(--------------------------------------------------------------)
(Ilosc elementow w poziomie - plyt styropianowych: 3szt.)

(--------------------------------------------------------------)
(                        PROGRAM START                         )
(--------------------------------------------------------------)

G00 X-10.0
G00 Y10.0
G00 X 0
G01 F100.0
G01 X0.0
G01 Y10.0
G01 X19.23
G01 Y13.673
G01 X38.46
G01 Y24.692
G01 X57.69
G01 Y43.057
G01 X76.92
G01 Y68.768
G01 X96.15
G01 Y101.825
G01 X115.38
G01 Y142.228
G01 X134.61
G01 Y189.977
G01 X153.84
G01 Y57.749
G01 X173.07
G01 Y120.19
G01 X192.3
G01 Y189.977
G01 X211.53
G01 Y79.787
G01 X230.76
G01 Y164.266
G01 X249.99
G01 Y68.768
G01 X269.22
G01 Y167.939
G01 X288.45
G01 Y87.133
G01 X307.68
G01 Y13.673
G01 X326.91
G01 Y134.882
G01 X346.14
G01 Y76.114
G01 X365.37
G01 Y24.692
G01 X384.6
G01 Y167.939
G01 X403.83
G01 Y131.209
G01 X423.06
G01 Y101.825
G01 X442.29
G01 Y79.787
G01 X461.52
G01 Y65.095
G01 X480.75
G01 Y57.749
G01 X499.98
G01 Y57.749
G01 X519.21
G01 Y65.095
G01 X538.44
G01 Y79.787
G01 X557.67
G01 Y101.825
G01 X576.9
G01 Y131.209
G01 X596.13
G01 Y167.939
G01 X615.36
G01 Y24.692
G01 X634.59
G01 Y76.114
G01 X653.82
G01 Y134.882
G01 X673.05
G01 Y13.673
G01 X692.28
G01 Y87.133
G01 X711.51
G01 Y167.939
G01 X730.74
G01 Y68.768
G01 X749.97
G01 Y164.266
G01 X769.2
G01 Y79.787
G01 X788.43
G01 Y189.977
G01 X807.66
G01 Y120.19
G01 X826.89
G01 Y57.749
G01 X846.12
G01 Y189.977
G01 X865.35
G01 Y142.228
G01 X884.58
G01 Y101.825
G01 X903.81
G01 Y68.768
G01 X923.04
G01 Y43.057
G01 X942.27
G01 Y24.692
G01 X961.5
G01 Y13.673
G01 X980.73
G01 Y10.0
G01 X1020.0
G00 Y610.0
G00 X-10.0
(Koniec Plaszczyzny nr:1)
(Koniec warstwy: 1)
G00 X-10.0
G00 Y210.0
G00 X 0
G01 F100.0
G01 X0.0
G01 Y210.0
G01 X19.23
G01 Y213.673
G01 X38.46
G01 Y224.692
G01 X57.69
G01 Y243.057
G01 X76.92
G01 Y268.768
G01 X96.15
G01 Y301.825
G01 X115.38
G01 Y342.228
G01 X134.61
G01 Y389.977
G01 X153.84
G01 Y257.749
G01 X173.07
G01 Y320.19
G01 X192.3
G01 Y389.977
G01 X211.53
G01 Y279.787
G01 X230.76
G01 Y364.266
G01 X249.99
G01 Y268.768
G01 X269.22
G01 Y367.939
G01 X288.45
G01 Y287.133
G01 X307.68
G01 Y213.673
G01 X326.91
G01 Y334.882
G01 X346.14
G01 Y276.114
G01 X365.37
G01 Y224.692
G01 X384.6
G01 Y367.939
G01 X403.83
G01 Y331.209
G01 X423.06
G01 Y301.825
G01 X442.29
G01 Y279.787
G01 X461.52
G01 Y265.095
G01 X480.75
G01 Y257.749
G01 X499.98
G01 Y257.749
G01 X519.21
G01 Y265.095
G01 X538.44
G01 Y279.787
G01 X557.67
G01 Y301.825
G01 X576.9
G01 Y331.209
G01 X596.13
G01 Y367.939
G01 X615.36
G01 Y224.692
G01 X634.59
G01 Y276.114
G01 X653.82
G01 Y334.882
G01 X673.05
G01 Y213.673
G01 X692.28
G01 Y287.133
G01 X711.51
G01 Y367.939
G01 X730.74
G01 Y268.768
G01 X749.97
G01 Y364.266
G01 X769.2
G01 Y279.787
G01 X788.43
G01 Y389.977
G01 X807.66
G01 Y320.19
G01 X826.89
G01 Y257.749
G01 X846.12
G01 Y389.977
G01 X865.35
G01 Y342.228
G01 X884.58
G01 Y301.825
G01 X903.81
G01 Y268.768
G01 X923.04
G01 Y243.057
G01 X942.27
G01 Y224.692
G01 X961.5
G01 Y213.673
G01 X980.73
G01 Y210.0
G01 X1020.0
G00 Y610.0
G00 X-10.0
(Koniec Plaszczyzny nr:1)
(Koniec warstwy: 2)
G00 X-10.0
G00 Y410.0
G00 X 0
G01 F100.0
G01 X0.0
G01 Y410.0
G01 X19.23
G01 Y413.673
G01 X38.46
G01 Y424.692
G01 X57.69
G01 Y443.057
G01 X76.92
G01 Y468.768
G01 X96.15
G01 Y501.825
G01 X115.38
G01 Y542.228
G01 X134.61
G01 Y589.977
G01 X153.84
G01 Y457.749
G01 X173.07
G01 Y520.19
G01 X192.3
G01 Y589.977
G01 X211.53
G01 Y479.787
G01 X230.76
G01 Y564.266
G01 X249.99
G01 Y468.768
G01 X269.22
G01 Y567.939
G01 X288.45
G01 Y487.133
G01 X307.68
G01 Y413.673
G01 X326.91
G01 Y534.882
G01 X346.14
G01 Y476.114
G01 X365.37
G01 Y424.692
G01 X384.6
G01 Y567.939
G01 X403.83
G01 Y531.209
G01 X423.06
G01 Y501.825
G01 X442.29
G01 Y479.787
G01 X461.52
G01 Y465.095
G01 X480.75
G01 Y457.749
G01 X499.98
G01 Y457.749
G01 X519.21
G01 Y465.095
G01 X538.44
G01 Y479.787
G01 X557.67
G01 Y501.825
G01 X576.9
G01 Y531.209
G01 X596.13
G01 Y567.939
G01 X615.36
G01 Y424.692
G01 X634.59
G01 Y476.114
G01 X653.82
G01 Y534.882
G01 X673.05
G01 Y413.673
G01 X692.28
G01 Y487.133
G01 X711.51
G01 Y567.939
G01 X730.74
G01 Y468.768
G01 X749.97
G01 Y564.266
G01 X769.2
G01 Y479.787
G01 X788.43
G01 Y589.977
G01 X807.66
G01 Y520.19
G01 X826.89
G01 Y457.749
G01 X846.12
G01 Y589.977
G01 X865.35
G01 Y542.228
G01 X884.58
G01 Y501.825
G01 X903.81
G01 Y468.768
G01 X923.04
G01 Y443.057
G01 X942.27
G01 Y424.692
G01 X961.5
G01 Y413.673
G01 X980.73
G01 Y410.0
G01 X1020.0
G00 Y610.0
G00 X-10.0
(Koniec Plaszczyzny nr:1)
(Koniec warstwy: 3)
G00 X-10
G00 Y0
M02
(--------------------------------------------------------------)
(                        PROGRAM STOP                          )
(--------------------------------------------------------------)
(END OF FILE)
%
