N10 G90 G21
G00 X-10 Y0
(--------------------------------------------------------------)
(Diffuser Auto Generated G Code - Bartek Magdon)
(Z axis Unused)
(X0,Y0,Z0= Left, Bottom, NONE)
(MATERIAL TYPE= STYRO FOAM)
(--------------------------------------------------------------)
(Plik Macierzy: qrd_51.csv)
(Plik wyjsciowy: 3xQRD51_1000mm.nc)
(Wersja Programu: gcode_gen4.py)
(Data Wygenerowania: Mon Feb 29 23:02:14 2016)
(--------------------------------------------------------------)
(Szerokosc Dyfuzora calkowita:  999.96mm)
(Wysokosc Materiału calkowita: 600.0)
(Wysokosc Pojedynczego dyfuzora: 200.0)
(Dlugosc Materialu: 1000.0)
(--------------------------------------------------------------)
(Szerokosc Slupka jednostkowa: 19.23mm)
(Wysokosc Slupka jednostkowa: 3.592mm)
(Wysokosc Slupka maksymalna: 176.008mm)
(Predkosc podawania materialu: 100.0mm/min)
(Zadana odleglosc bezpieczna: 10.0mm)
(Wysokosc Podstawy - dna: 12.0mm)
(--------------------------------------------------------------)
(Ilosc elementow w poziomie - plyt styropianowych: 3szt.)

(--------------------------------------------------------------)
(                        PROGRAM START                         )
(--------------------------------------------------------------)

G00 X-10.0
G00 Y12.0
G00 X 0
G01 F100.0
G01 X0.0
G01 Y12.0
G01 X19.23
G01 Y15.592
G01 X38.46
G01 Y26.368
G01 X57.69
G01 Y44.328
G01 X76.92
G01 Y69.472
G01 X96.15
G01 Y101.8
G01 X115.38
G01 Y141.312
G01 X134.61
G01 Y188.008
G01 X153.84
G01 Y58.696
G01 X173.07
G01 Y119.76
G01 X192.3
G01 Y188.008
G01 X211.53
G01 Y80.248
G01 X230.76
G01 Y162.864
G01 X249.99
G01 Y69.472
G01 X269.22
G01 Y166.456
G01 X288.45
G01 Y87.432
G01 X307.68
G01 Y15.592
G01 X326.91
G01 Y134.128
G01 X346.14
G01 Y76.656
G01 X365.37
G01 Y26.368
G01 X384.6
G01 Y166.456
G01 X403.83
G01 Y130.536
G01 X423.06
G01 Y101.8
G01 X442.29
G01 Y80.248
G01 X461.52
G01 Y65.88
G01 X480.75
G01 Y58.696
G01 X499.98
G01 Y58.696
G01 X519.21
G01 Y65.88
G01 X538.44
G01 Y80.248
G01 X557.67
G01 Y101.8
G01 X576.9
G01 Y130.536
G01 X596.13
G01 Y166.456
G01 X615.36
G01 Y26.368
G01 X634.59
G01 Y76.656
G01 X653.82
G01 Y134.128
G01 X673.05
G01 Y15.592
G01 X692.28
G01 Y87.432
G01 X711.51
G01 Y166.456
G01 X730.74
G01 Y69.472
G01 X749.97
G01 Y162.864
G01 X769.2
G01 Y80.248
G01 X788.43
G01 Y188.008
G01 X807.66
G01 Y119.76
G01 X826.89
G01 Y58.696
G01 X846.12
G01 Y188.008
G01 X865.35
G01 Y141.312
G01 X884.58
G01 Y101.8
G01 X903.81
G01 Y69.472
G01 X923.04
G01 Y44.328
G01 X942.27
G01 Y26.368
G01 X961.5
G01 Y15.592
G01 X980.73
G01 Y12.0
G01 X1020.0
G00 Y604
G00 X-10.0
(Koniec Plaszczyzny nr:1)
(Koniec warstwy: 1)
G00 X-10.0
G00 Y212.0
G00 X 0
G01 F100.0
G01 X0.0
G01 Y212.0
G01 X19.23
G01 Y215.592
G01 X38.46
G01 Y226.368
G01 X57.69
G01 Y244.328
G01 X76.92
G01 Y269.472
G01 X96.15
G01 Y301.8
G01 X115.38
G01 Y341.312
G01 X134.61
G01 Y388.008
G01 X153.84
G01 Y258.696
G01 X173.07
G01 Y319.76
G01 X192.3
G01 Y388.008
G01 X211.53
G01 Y280.248
G01 X230.76
G01 Y362.864
G01 X249.99
G01 Y269.472
G01 X269.22
G01 Y366.456
G01 X288.45
G01 Y287.432
G01 X307.68
G01 Y215.592
G01 X326.91
G01 Y334.128
G01 X346.14
G01 Y276.656
G01 X365.37
G01 Y226.368
G01 X384.6
G01 Y366.456
G01 X403.83
G01 Y330.536
G01 X423.06
G01 Y301.8
G01 X442.29
G01 Y280.248
G01 X461.52
G01 Y265.88
G01 X480.75
G01 Y258.696
G01 X499.98
G01 Y258.696
G01 X519.21
G01 Y265.88
G01 X538.44
G01 Y280.248
G01 X557.67
G01 Y301.8
G01 X576.9
G01 Y330.536
G01 X596.13
G01 Y366.456
G01 X615.36
G01 Y226.368
G01 X634.59
G01 Y276.656
G01 X653.82
G01 Y334.128
G01 X673.05
G01 Y215.592
G01 X692.28
G01 Y287.432
G01 X711.51
G01 Y366.456
G01 X730.74
G01 Y269.472
G01 X749.97
G01 Y362.864
G01 X769.2
G01 Y280.248
G01 X788.43
G01 Y388.008
G01 X807.66
G01 Y319.76
G01 X826.89
G01 Y258.696
G01 X846.12
G01 Y388.008
G01 X865.35
G01 Y341.312
G01 X884.58
G01 Y301.8
G01 X903.81
G01 Y269.472
G01 X923.04
G01 Y244.328
G01 X942.27
G01 Y226.368
G01 X961.5
G01 Y215.592
G01 X980.73
G01 Y212.0
G01 X1020.0
G00 Y604
G00 X-10.0
(Koniec Plaszczyzny nr:1)
(Koniec warstwy: 2)
G00 X-10.0
G00 Y412.0
G00 X 0
G01 F100.0
G01 X0.0
G01 Y412.0
G01 X19.23
G01 Y415.592
G01 X38.46
G01 Y426.368
G01 X57.69
G01 Y444.328
G01 X76.92
G01 Y469.472
G01 X96.15
G01 Y501.8
G01 X115.38
G01 Y541.312
G01 X134.61
G01 Y588.008
G01 X153.84
G01 Y458.696
G01 X173.07
G01 Y519.76
G01 X192.3
G01 Y588.008
G01 X211.53
G01 Y480.248
G01 X230.76
G01 Y562.864
G01 X249.99
G01 Y469.472
G01 X269.22
G01 Y566.456
G01 X288.45
G01 Y487.432
G01 X307.68
G01 Y415.592
G01 X326.91
G01 Y534.128
G01 X346.14
G01 Y476.656
G01 X365.37
G01 Y426.368
G01 X384.6
G01 Y566.456
G01 X403.83
G01 Y530.536
G01 X423.06
G01 Y501.8
G01 X442.29
G01 Y480.248
G01 X461.52
G01 Y465.88
G01 X480.75
G01 Y458.696
G01 X499.98
G01 Y458.696
G01 X519.21
G01 Y465.88
G01 X538.44
G01 Y480.248
G01 X557.67
G01 Y501.8
G01 X576.9
G01 Y530.536
G01 X596.13
G01 Y566.456
G01 X615.36
G01 Y426.368
G01 X634.59
G01 Y476.656
G01 X653.82
G01 Y534.128
G01 X673.05
G01 Y415.592
G01 X692.28
G01 Y487.432
G01 X711.51
G01 Y566.456
G01 X730.74
G01 Y469.472
G01 X749.97
G01 Y562.864
G01 X769.2
G01 Y480.248
G01 X788.43
G01 Y588.008
G01 X807.66
G01 Y519.76
G01 X826.89
G01 Y458.696
G01 X846.12
G01 Y588.008
G01 X865.35
G01 Y541.312
G01 X884.58
G01 Y501.8
G01 X903.81
G01 Y469.472
G01 X923.04
G01 Y444.328
G01 X942.27
G01 Y426.368
G01 X961.5
G01 Y415.592
G01 X980.73
G01 Y412.0
G01 X1020.0
G00 Y604
G00 X-10.0
(Koniec Plaszczyzny nr:1)
(Koniec warstwy: 3)
G00 X-10
G00 Y0
M02
(--------------------------------------------------------------)
(                        PROGRAM STOP                          )
(--------------------------------------------------------------)
(END OF FILE)
%
