N10 G90 G21
G00 X0 Y0
(--------------------------------------------------------------)
(Diffuser Auto Generated G Code - Bartek Magdon)
(Z axis Unused)
(X0,Y0,Z0= Center, Center, Top)
(MATERIAL TYPE= STYRO FOAM)
(--------------------------------------------------------------)(Plik Macierzy: qrd23.csv)
(Plik wyjsciowy: pojedynczy_qrd23_150mm.nc)
(--------------------------------------------------------------)
(Szerokosc Dyfuzora calkowita:  499.92mm)
(Wysokosc Materiału calkowita: 150.0)
(Wysokosc Pojedynczego dyfuzora: 150.0)
(Dlugosc Materialu: 500.0)
(--------------------------------------------------------------)
(Szerokosc Slupka jednostkowa: 20.83mm)
(Wysokosc Slupka jednostkowa: 7.778mm)
(Wysokosc Slupka maksymalna: 140.004mm)
(Predkosc podawania materialu: 100.0mm/min)
(Zadana odleglosc bezpieczna: 10.0mm)
(Wysokosc Podstawy - dna: 5.0mm)
(--------------------------------------------------------------)
(Ilosc elementow w poziomie - plyt styropianowych: 1szt.)
G00 X-10.0
G00 Y5.0
G00 X 0
G01 F100.0
G01 X0.0
G01 Y5.0
G01 X20.83
G01 Y12.778
G01 X41.66
G01 Y36.112
G01 X62.49
G01 Y75.002
G01 X83.32
G01 Y129.448
G01 X104.15
G01 Y20.556
G01 X124.98
G01 Y106.114
G01 X145.81
G01 Y28.334
G01 X166.64
G01 Y145.004
G01 X187.47
G01 Y98.336
G01 X208.3
G01 Y67.224
G01 X229.13
G01 Y51.668
G01 X249.96
G01 Y51.668
G01 X270.79
G01 Y67.224
G01 X291.62
G01 Y98.336
G01 X312.45
G01 Y145.004
G01 X333.28
G01 Y28.334
G01 X354.11
G01 Y106.114
G01 X374.94
G01 Y20.556
G01 X395.77
G01 Y129.448
G01 X416.6
G01 Y75.002
G01 X437.43
G01 Y36.112
G01 X458.26
G01 Y12.778
G01 X479.09
G01 Y5.0
G01 X520.0
G00 Y160.0
G00 X-10.0
G00 Y0
(Nowa Linia numer:1)
G00 X0Y0
M02
(END OF FILE)
%
