(Diffuser Auto Generated G Code)
(Z axis Unused)
(X0,Y0,Z0= Center, Center, Top)
(MATERIAL TYPE= STYRO FOAM)

N10 G90 G21
(GCODE START)
G00 X0 Y0
(Plik Macierzy qrd23.csv)
(Plik wyjsciowy pojedynczy_qrd23_200mm.nc)
(--------------------------------------------------------------)
(Szerokosc Slupka jednostkowa 20.83mm)
(Szerokosc Dyfuzora calkowita  499.92mm)
(Wysokosc Slupka jednostka 10.556mm)
(Wysokosc Slupka maksymalna 190.008mm)
(Predkosc podawania materialu 100.0mm/min)
(Wysokosc Materiału calkowita 200.0)
(Wysokosc Materiału jednostkowa 200.0)
(Dlugosc Materialu 500.0)
(Zadana odleglosc bezpieczna 10.0mm)
(Wysokosc Podstawy - dna 5.0mm)
(Ilosc elementow w pionie 1szt.)
G00 X-10.0
G00 Y5.0
G00 X 0
G01 F100.0
G01 X0.0
G01 Y5.0
G01 X20.83
G01 Y15.556
G01 X41.66
G01 Y47.224
G01 X62.49
G01 Y100.004
G01 X83.32
G01 Y173.896
G01 X104.15
G01 Y26.112
G01 X124.98
G01 Y142.228
G01 X145.81
G01 Y36.668
G01 X166.64
G01 Y195.008
G01 X187.47
G01 Y131.672
G01 X208.3
G01 Y89.448
G01 X229.13
G01 Y68.336
G01 X249.96
G01 Y68.336
G01 X270.79
G01 Y89.448
G01 X291.62
G01 Y131.672
G01 X312.45
G01 Y195.008
G01 X333.28
G01 Y36.668
G01 X354.11
G01 Y142.228
G01 X374.94
G01 Y26.112
G01 X395.77
G01 Y173.896
G01 X416.6
G01 Y100.004
G01 X437.43
G01 Y47.224
G01 X458.26
G01 Y15.556
G01 X479.09
G01 Y5.0
G01 X520.0
G00 Y210.0
G00 X-10.0
G00 Y0
(Nowa Linia numer:1)
G92
M02
(END OF FILE)
%
