(Diffuser Auto Generated G Code)
(Z axis Unused)
(X0,Y0,Z0= Center, Center, Top)
(MATERIAL TYPE= STYRO FOAM)

N10 G90 G21
(GCODE START)
G00 X0 Y0
(Plik Macierzy pr_23.csv)
(Plik wyjsciowy pojedynczy_pr23_100mm.nc)
(--------------------------------------------------------------)
(Szerokosc Slupka jednostkowa 22.73mm)
(Szerokosc Dyfuzora calkowita  500.06mm)
(Wysokosc Slupka jednostka 5.0mm)
(Wysokosc Slupka maksymalna 90.0mm)
(Predkosc podawania materialu 100.0mm/min)
(Wysokosc Materiału calkowita 100.0)
(Wysokosc Materiału jednostkowa 100.0)
(Dlugosc Materialu 500.0)
(Zadana odleglosc bezpieczna 10.0mm)
(Wysokosc Podstawy - dna 5.0mm)
(Ilosc elementow w pionie 1szt.)
G00 X-10.0
G00 Y15.0
G00 X 0
G01 F100.0
G01 X0.0
G01 Y15.0
G01 X22.73
G01 Y25.0
G01 X45.46
G01 Y45.0
G01 X68.19
G01 Y85.0
G01 X90.92
G01 Y50.0
G01 X113.65
G01 Y95.0
G01 X136.38
G01 Y70.0
G01 X159.11
G01 Y20.0
G01 X181.84
G01 Y35.0
G01 X204.57
G01 Y65.0
G01 X227.3
G01 Y10.0
G01 X250.03
G01 Y15.0
G01 X272.76
G01 Y25.0
G01 X295.49
G01 Y45.0
G01 X318.22
G01 Y85.0
G01 X340.95
G01 Y50.0
G01 X363.68
G01 Y95.0
G01 X386.41
G01 Y70.0
G01 X409.14
G01 Y20.0
G01 X431.87
G01 Y35.0
G01 X454.6
G01 Y65.0
G01 X477.33
G01 Y10.0
G01 X520.0
G00 Y110.0
G00 X-10.0
G00 Y0
(Nowa Linia numer:1)
G92
M02
(END OF FILE)
%
