N10 G90 G21
G00 X0 Y0
(--------------------------------------------------------------)
(Diffuser Auto Generated G Code - Bartek Magdon)
(Z axis Unused)
(X0,Y0,Z0= Center, Center, Top)
(MATERIAL TYPE= STYRO FOAM)
(--------------------------------------------------------------)(Plik Macierzy: qrd23.csv)
(Plik wyjsciowy: pojedynczy_qrd23_120mm.nc)
(--------------------------------------------------------------)
(Szerokosc Dyfuzora calkowita:  499.92mm)
(Wysokosc Materiału calkowita: 120.0)
(Wysokosc Pojedynczego dyfuzora: 120.0)
(Dlugosc Materialu: 500.0)
(--------------------------------------------------------------)
(Szerokosc Slupka jednostkowa: 20.83mm)
(Wysokosc Slupka jednostkowa: 6.111mm)
(Wysokosc Slupka maksymalna: 109.998mm)
(Predkosc podawania materialu: 100.0mm/min)
(Zadana odleglosc bezpieczna: 10.0mm)
(Wysokosc Podstawy - dna: 5.0mm)
(--------------------------------------------------------------)
(Ilosc elementow w poziomie - plyt styropianowych: 1szt.)
G00 X-10.0
G00 Y5.0
G00 X 0
G01 F100.0
G01 X0.0
G01 Y5.0
G01 X20.83
G01 Y11.111
G01 X41.66
G01 Y29.444
G01 X62.49
G01 Y59.999
G01 X83.32
G01 Y102.776
G01 X104.15
G01 Y17.222
G01 X124.98
G01 Y84.443
G01 X145.81
G01 Y23.333
G01 X166.64
G01 Y114.998
G01 X187.47
G01 Y78.332
G01 X208.3
G01 Y53.888
G01 X229.13
G01 Y41.666
G01 X249.96
G01 Y41.666
G01 X270.79
G01 Y53.888
G01 X291.62
G01 Y78.332
G01 X312.45
G01 Y114.998
G01 X333.28
G01 Y23.333
G01 X354.11
G01 Y84.443
G01 X374.94
G01 Y17.222
G01 X395.77
G01 Y102.776
G01 X416.6
G01 Y59.999
G01 X437.43
G01 Y29.444
G01 X458.26
G01 Y11.111
G01 X479.09
G01 Y5.0
G01 X520.0
G00 Y130.0
G00 X-10.0
G00 Y0
(Nowa Linia numer:1)
G00 X0Y0
M02
(END OF FILE)
%
