(Diffuser Auto Generated G Code)
(Z axis Unused)
(X0,Y0,Z0= Center, Center, Top)
(MATERIAL TYPE= STYRO FOAM)

N10 G90 G21
(GCODE START)
G00 X0 Y0
(Plik Macierzy qrd_51.csv)
(Plik wyjsciowy pojedynczy_qrd51_100mm.nc)
(--------------------------------------------------------------)
(Szerokosc Slupka jednostkowa 9.62mm)
(Szerokosc Dyfuzora calkowita  500.24mm)
(Wysokosc Slupka jednostka 1.837mm)
(Wysokosc Slupka maksymalna 90.013mm)
(Predkosc podawania materialu 100.0mm/min)
(Wysokosc Materiału calkowita 100.0)
(Wysokosc Materiału jednostkowa 100.0)
(Dlugosc Materialu 500.0)
(Zadana odleglosc bezpieczna 10.0mm)
(Wysokosc Podstawy - dna 5.0mm)
(Ilosc elementow w pionie 1szt.)
G00 X-10.0
G00 Y5.0
G00 X 0
G01 F100.0
G01 X0.0
G01 Y5.0
G01 X9.62
G01 Y6.837
G01 X19.24
G01 Y12.348
G01 X28.86
G01 Y21.533
G01 X38.48
G01 Y34.392
G01 X48.1
G01 Y50.925
G01 X57.72
G01 Y71.132
G01 X67.34
G01 Y95.013
G01 X76.96
G01 Y28.881
G01 X86.58
G01 Y60.11
G01 X96.2
G01 Y95.013
G01 X105.82
G01 Y39.903
G01 X115.44
G01 Y82.154
G01 X125.06
G01 Y34.392
G01 X134.68
G01 Y83.991
G01 X144.3
G01 Y43.577
G01 X153.92
G01 Y6.837
G01 X163.54
G01 Y67.458
G01 X173.16
G01 Y38.066
G01 X182.78
G01 Y12.348
G01 X192.4
G01 Y83.991
G01 X202.02
G01 Y65.621
G01 X211.64
G01 Y50.925
G01 X221.26
G01 Y39.903
G01 X230.88
G01 Y32.555
G01 X240.5
G01 Y28.881
G01 X250.12
G01 Y28.881
G01 X259.74
G01 Y32.555
G01 X269.36
G01 Y39.903
G01 X278.98
G01 Y50.925
G01 X288.6
G01 Y65.621
G01 X298.22
G01 Y83.991
G01 X307.84
G01 Y12.348
G01 X317.46
G01 Y38.066
G01 X327.08
G01 Y67.458
G01 X336.7
G01 Y6.837
G01 X346.32
G01 Y43.577
G01 X355.94
G01 Y83.991
G01 X365.56
G01 Y34.392
G01 X375.18
G01 Y82.154
G01 X384.8
G01 Y39.903
G01 X394.42
G01 Y95.013
G01 X404.04
G01 Y60.11
G01 X413.66
G01 Y28.881
G01 X423.28
G01 Y95.013
G01 X432.9
G01 Y71.132
G01 X442.52
G01 Y50.925
G01 X452.14
G01 Y34.392
G01 X461.76
G01 Y21.533
G01 X471.38
G01 Y12.348
G01 X481.0
G01 Y6.837
G01 X490.62
G01 Y5.0
G01 X520.0
G00 Y110.0
G00 X-10.0
G00 Y0
(Nowa Linia numer:1)
G92
M02
(END OF FILE)
%
