N10 G90 G21
G00 X0 Y0
(--------------------------------------------------------------)
(Diffuser Auto Generated G Code - Bartek Magdon)
(Z axis Unused)
(X0,Y0,Z0= Center, Center, Top)
(MATERIAL TYPE= STYRO FOAM)
(--------------------------------------------------------------)(Plik Macierzy: pr_23.csv)
(Plik wyjsciowy: pojedynczy_pr23_150mm.nc)
(--------------------------------------------------------------)
(Szerokosc Dyfuzora calkowita:  500.06mm)
(Wysokosc Materiału calkowita: 150.0)
(Wysokosc Pojedynczego dyfuzora: 150.0)
(Dlugosc Materialu: 500.0)
(--------------------------------------------------------------)
(Szerokosc Slupka jednostkowa: 22.73mm)
(Wysokosc Slupka jednostkowa: 7.778mm)
(Wysokosc Slupka maksymalna: 140.004mm)
(Predkosc podawania materialu: 100.0mm/min)
(Zadana odleglosc bezpieczna: 10.0mm)
(Wysokosc Podstawy - dna: 5.0mm)
(--------------------------------------------------------------)
(Ilosc elementow w poziomie - plyt styropianowych: 1szt.)
G00 X-10.0
G00 Y20.556
G00 X 0
G01 F100.0
G01 X0.0
G01 Y20.556
G01 X22.73
G01 Y36.112
G01 X45.46
G01 Y67.224
G01 X68.19
G01 Y129.448
G01 X90.92
G01 Y75.002
G01 X113.65
G01 Y145.004
G01 X136.38
G01 Y106.114
G01 X159.11
G01 Y28.334
G01 X181.84
G01 Y51.668
G01 X204.57
G01 Y98.336
G01 X227.3
G01 Y12.778
G01 X250.03
G01 Y20.556
G01 X272.76
G01 Y36.112
G01 X295.49
G01 Y67.224
G01 X318.22
G01 Y129.448
G01 X340.95
G01 Y75.002
G01 X363.68
G01 Y145.004
G01 X386.41
G01 Y106.114
G01 X409.14
G01 Y28.334
G01 X431.87
G01 Y51.668
G01 X454.6
G01 Y98.336
G01 X477.33
G01 Y12.778
G01 X520.0
G00 Y160.0
G00 X-10.0
G00 Y0
(Nowa Linia numer:1)
G00 X0Y0
M02
(END OF FILE)
%
