(Diffuser Auto Generated G Code)
(Z axis Unused)
(X0,Y0,Z0= Center, Center, Top)
(MATERIAL TYPE= STYRO FOAM)

N10 G90 G21
(GCODE START)
G00 X0 Y0
(Plik Macierzy qrd23x2.csv)
(Plik wyjsciowy testowo_potrojny_qrd23_200mm.nc)
(--------------------------------------------------------------)
(Szerokosc Slupka jednostkowa 10.42mm)
(Szerokosc Dyfuzora calkowita  500.16mm)
(Wysokosc Slupka jednostka 10.556mm)
(Wysokosc Slupka maksymalna 190.008mm)
(Predkosc podawania materialu 100.0mm/min)
(Wysokosc Materiału calkowita 600.0)
(Wysokosc Materiału jednostkowa 200.0)
(Dlugosc Materialu 500.0)
(Zadana odleglosc bezpieczna 10.0mm)
(Wysokosc Podstawy - dna 5.0mm)
(Ilosc elementow w pionie 3szt.)
G00 X-10.0
G00 Y5.0
G00 X 0
G01 F100.0
G01 X0.0
G01 Y5.0
G01 X10.42
G01 Y15.556
G01 X20.84
G01 Y47.224
G01 X31.26
G01 Y100.004
G01 X41.68
G01 Y173.896
G01 X52.1
G01 Y26.112
G01 X62.52
G01 Y142.228
G01 X72.94
G01 Y36.668
G01 X83.36
G01 Y195.008
G01 X93.78
G01 Y131.672
G01 X104.2
G01 Y89.448
G01 X114.62
G01 Y68.336
G01 X125.04
G01 Y68.336
G01 X135.46
G01 Y89.448
G01 X145.88
G01 Y131.672
G01 X156.3
G01 Y195.008
G01 X166.72
G01 Y36.668
G01 X177.14
G01 Y142.228
G01 X187.56
G01 Y26.112
G01 X197.98
G01 Y173.896
G01 X208.4
G01 Y100.004
G01 X218.82
G01 Y47.224
G01 X229.24
G01 Y15.556
G01 X239.66
G01 Y5.0
G01 X250.08
G01 Y5.0
G01 X260.5
G01 Y15.556
G01 X270.92
G01 Y47.224
G01 X281.34
G01 Y100.004
G01 X291.76
G01 Y173.896
G01 X302.18
G01 Y26.112
G01 X312.6
G01 Y142.228
G01 X323.02
G01 Y36.668
G01 X333.44
G01 Y195.008
G01 X343.86
G01 Y131.672
G01 X354.28
G01 Y89.448
G01 X364.7
G01 Y68.336
G01 X375.12
G01 Y68.336
G01 X385.54
G01 Y89.448
G01 X395.96
G01 Y131.672
G01 X406.38
G01 Y195.008
G01 X416.8
G01 Y36.668
G01 X427.22
G01 Y142.228
G01 X437.64
G01 Y26.112
G01 X448.06
G01 Y173.896
G01 X458.48
G01 Y100.004
G01 X468.9
G01 Y47.224
G01 X479.32
G01 Y15.556
G01 X489.74
G01 Y5.0
G01 X520.0
G00 Y610.0
G00 X-10.0
G00 Y0
(Nowa Linia numer:1)
G00 X-10.0
G00 Y205.0
G00 X 0
G01 F100.0
G01 X0.0
G01 Y205.0
G01 X10.42
G01 Y215.556
G01 X20.84
G01 Y247.224
G01 X31.26
G01 Y300.004
G01 X41.68
G01 Y373.896
G01 X52.1
G01 Y226.112
G01 X62.52
G01 Y342.228
G01 X72.94
G01 Y236.668
G01 X83.36
G01 Y395.008
G01 X93.78
G01 Y331.672
G01 X104.2
G01 Y289.448
G01 X114.62
G01 Y268.336
G01 X125.04
G01 Y268.336
G01 X135.46
G01 Y289.448
G01 X145.88
G01 Y331.672
G01 X156.3
G01 Y395.008
G01 X166.72
G01 Y236.668
G01 X177.14
G01 Y342.228
G01 X187.56
G01 Y226.112
G01 X197.98
G01 Y373.896
G01 X208.4
G01 Y300.004
G01 X218.82
G01 Y247.224
G01 X229.24
G01 Y215.556
G01 X239.66
G01 Y205.0
G01 X250.08
G01 Y205.0
G01 X260.5
G01 Y215.556
G01 X270.92
G01 Y247.224
G01 X281.34
G01 Y300.004
G01 X291.76
G01 Y373.896
G01 X302.18
G01 Y226.112
G01 X312.6
G01 Y342.228
G01 X323.02
G01 Y236.668
G01 X333.44
G01 Y395.008
G01 X343.86
G01 Y331.672
G01 X354.28
G01 Y289.448
G01 X364.7
G01 Y268.336
G01 X375.12
G01 Y268.336
G01 X385.54
G01 Y289.448
G01 X395.96
G01 Y331.672
G01 X406.38
G01 Y395.008
G01 X416.8
G01 Y236.668
G01 X427.22
G01 Y342.228
G01 X437.64
G01 Y226.112
G01 X448.06
G01 Y373.896
G01 X458.48
G01 Y300.004
G01 X468.9
G01 Y247.224
G01 X479.32
G01 Y215.556
G01 X489.74
G01 Y205.0
G01 X520.0
G00 Y610.0
G00 X-10.0
G00 Y0
(Nowa Linia numer:1)
G00 X-10.0
G00 Y405.0
G00 X 0
G01 F100.0
G01 X0.0
G01 Y405.0
G01 X10.42
G01 Y415.556
G01 X20.84
G01 Y447.224
G01 X31.26
G01 Y500.004
G01 X41.68
G01 Y573.896
G01 X52.1
G01 Y426.112
G01 X62.52
G01 Y542.228
G01 X72.94
G01 Y436.668
G01 X83.36
G01 Y595.008
G01 X93.78
G01 Y531.672
G01 X104.2
G01 Y489.448
G01 X114.62
G01 Y468.336
G01 X125.04
G01 Y468.336
G01 X135.46
G01 Y489.448
G01 X145.88
G01 Y531.672
G01 X156.3
G01 Y595.008
G01 X166.72
G01 Y436.668
G01 X177.14
G01 Y542.228
G01 X187.56
G01 Y426.112
G01 X197.98
G01 Y573.896
G01 X208.4
G01 Y500.004
G01 X218.82
G01 Y447.224
G01 X229.24
G01 Y415.556
G01 X239.66
G01 Y405.0
G01 X250.08
G01 Y405.0
G01 X260.5
G01 Y415.556
G01 X270.92
G01 Y447.224
G01 X281.34
G01 Y500.004
G01 X291.76
G01 Y573.896
G01 X302.18
G01 Y426.112
G01 X312.6
G01 Y542.228
G01 X323.02
G01 Y436.668
G01 X333.44
G01 Y595.008
G01 X343.86
G01 Y531.672
G01 X354.28
G01 Y489.448
G01 X364.7
G01 Y468.336
G01 X375.12
G01 Y468.336
G01 X385.54
G01 Y489.448
G01 X395.96
G01 Y531.672
G01 X406.38
G01 Y595.008
G01 X416.8
G01 Y436.668
G01 X427.22
G01 Y542.228
G01 X437.64
G01 Y426.112
G01 X448.06
G01 Y573.896
G01 X458.48
G01 Y500.004
G01 X468.9
G01 Y447.224
G01 X479.32
G01 Y415.556
G01 X489.74
G01 Y405.0
G01 X520.0
G00 Y610.0
G00 X-10.0
G00 Y0
(Nowa Linia numer:1)
G92
M02
(END OF FILE)
%
